X:126
T:Mrs Norman MacKeigan
C:Dan R Macdonald
S:Radio Scotland
Z:Nigel Gatherer
M:4/4
L:1/8
K:D
z2|D2 D2 FAAB|defd g2 fe|dcBA BcdA|BdAF E2 FE|
D2 DA FAAB|defd g2 fe|dcBA BcdA|BdAF D2:|
f2|abaf defd|fada f2 df|abaf defd|fadf e/e/e ef|
abaf defd|fada f2 ec|dcBA BcdA|BGAF D2:|
